X:1
T:Title
L:1/8
Q:1/4=110
M:3/4
K:D
V:1 treble nm="Church Organ, Staff"
V:1
 Bc d2 c2 | B2 A4 | FF ^G2 B2 | ^A2 B4- | B2 A2 A2 | B2 AF D2 | E2 F2 B2 | ^G2 A4 | Bc d2 c2 | %9
w: By~Traditional~Words~~Music~by~Martin~Shaw * * *|||||||||
 BB A2 A2 | B2 =c2 B2 | A2 G4 | FE D4 | E2 F2 d2 | A2 G2 F2 | E2 D4 |] %16
w: |||||||

